X: 29
T:Dorset Four-Hand Reel
M:2/4
L:1/8
R:Reel
N:http://www.lesession.co.uk
Z:Steve Mansfield 1998-2001
K:G
GB GB | GB d2 | A>c BA | GB d2 | 
ce ge | dB d2 | AB/c/ BA | G2 G2 :: 
gf ed | gf ed | gf ed | cB A2 | 
fe d2 | fe d2 | d2 A>c | BG G2 :|
<end>
<start>
